assets/icons/24px/outline/statement-24px.svg

<svg width="24" height="24" viewBox="0 0 24 24" fill="none" xmlns="http://www.w3.org/2000/svg">
<path d="M18.4142 3.58579L19.1213 2.87868L18.4142 3.58579ZM18.4142 20.4142L17.7071 19.7071L18.4142 20.4142ZM5.58579 20.4142L6.29289 19.7071L5.58579 20.4142ZM6 17V7H4V17H6ZM15 20H9V22H15V20ZM18 7V17H20V7H18ZM9 4H15V2H9V4ZM20 7C20 6.08546 20.0021 5.29896 19.9179 4.67221C19.8297 4.01669 19.631 3.38834 19.1213 2.87868L17.7071 4.29289C17.7832 4.36902 17.8774 4.50496 17.9357 4.9387C17.9979 5.40121 18 6.02892 18 7H20ZM15 4C15.9711 4 16.5988 4.00212 17.0613 4.06431C17.495 4.12262 17.631 4.21677 17.7071 4.29289L19.1213 2.87868C18.6117 2.36902 17.9833 2.17027 17.3278 2.08214C16.701 1.99788 15.9145 2 15 2V4ZM15 22C15.9145 22 16.701 22.0021 17.3278 21.9179C17.9833 21.8297 18.6117 21.631 19.1213 21.1213L17.7071 19.7071C17.631 19.7832 17.495 19.8774 17.0613 19.9357C16.5988 19.9979 15.9711 20 15 20V22ZM18 17C18 17.9711 17.9979 18.5988 17.9357 19.0613C17.8774 19.495 17.7832 19.631 17.7071 19.7071L19.1213 21.1213C19.631 20.6117 19.8297 19.9833 19.9179 19.3278C20.0021 18.701 20 17.9145 20 17H18ZM4 17C4 17.9145 3.99788 18.701 4.08214 19.3278C4.17027 19.9833 4.36902 20.6117 4.87868 21.1213L6.29289 19.7071C6.21677 19.631 6.12262 19.495 6.06431 19.0613C6.00212 18.5988 6 17.9711 6 17H4ZM9 20C8.02892 20 7.40121 19.9979 6.9387 19.9357C6.50496 19.8774 6.36902 19.7832 6.29289 19.7071L4.87868 21.1213C5.38834 21.631 6.01669 21.8297 6.67221 21.9179C7.29896 22.0021 8.08546 22 9 22V20ZM6 7C6 6.02892 6.00212 5.40121 6.06431 4.9387C6.12262 4.50496 6.21677 4.36902 6.29289 4.29289L4.87868 2.87868C4.36902 3.38834 4.17027 4.01669 4.08214 4.67221C3.99788 5.29896 4 6.08546 4 7H6ZM9 2C8.08546 2 7.29896 1.99788 6.67221 2.08214C6.01669 2.17027 5.38834 2.36902 4.87868 2.87868L6.29289 4.29289C6.36902 4.21677 6.50496 4.12262 6.9387 4.06431C7.40121 4.00212 8.02892 4 9 4V2Z" fill="white"/>
<path d="M9.5 15.5H12M9.5 11.5H14.5M9.5 7.5H14.5" stroke="white" stroke-width="2" stroke-linecap="round" stroke-linejoin="round"/>
</svg>

<svg width="24" height="24" fill="none" xmlns="http://www.w3.org/2000/svg"><path d="M18.414 3.586l.707-.707-.707.707zm0 16.828l-.707-.707.707.707zm-12.828 0l.707-.707-.707.707zM6 17V7H4v10h2zm9 3H9v2h6v-2zm3-13v10h2V7h-2zM9 4h6V2H9v2zm11 3c0-.915.002-1.701-.082-2.328-.088-.655-.287-1.284-.797-1.793l-1.414 1.414c.076.076.17.212.229.646C17.998 5.4 18 6.029 18 7h2zm-5-3c.971 0 1.599.002 2.061.064.434.059.57.153.646.229l1.414-1.414c-.51-.51-1.138-.709-1.793-.797C16.7 1.998 15.915 2 15 2v2zm0 18c.915 0 1.701.002 2.328-.082.655-.088 1.284-.287 1.793-.797l-1.414-1.414c-.076.076-.212.17-.646.229-.462.062-1.09.064-2.061.064v2zm3-5c0 .971-.002 1.599-.064 2.061-.059.434-.153.57-.229.646l1.414 1.414c.51-.51.709-1.138.797-1.793C20.002 18.7 20 17.915 20 17h-2zM4 17c0 .915-.002 1.701.082 2.328.088.655.287 1.284.797 1.793l1.414-1.414c-.076-.076-.17-.212-.229-.646C6.002 18.6 6 17.971 6 17H4zm5 3c-.971 0-1.599-.002-2.061-.064-.434-.059-.57-.153-.646-.229l-1.414 1.414c.51.51 1.138.709 1.793.797C7.3 22.002 8.085 22 9 22v-2zM6 7c0-.971.002-1.599.064-2.061.059-.434.153-.57.229-.646L4.879 2.879c-.51.51-.709 1.138-.797 1.793C3.998 5.3 4 6.085 4 7h2zm3-5c-.915 0-1.701-.002-2.328.082-.655.088-1.284.287-1.793.797l1.414 1.414c.076-.076.212-.17.646-.229C7.4 4.002 8.029 4 9 4V2z" fill="#fff"/><path d="M9.5 15.5H12m-2.5-4h5m-5-4h5" stroke="#fff" stroke-width="2" stroke-linecap="round" stroke-linejoin="round"/></svg>
